X: 3
T:Ariel Hornpipe
R:Hornpipe
M:2/4
L:1/16
K:A
A2|A,CEA c2BA|BEGB d2cB|cAce aecA|BcdB AGFE|
A,CEA c2BA|BEGB d2cB|Acea gfdB|A2c2 A2:|
|:(3efg|aece a2ga|fdBd f2ed|cAce aecA|BcdB AGFE|
aece a2ga|fdBd f2ed|Acea Begb|gefg a2:|
